icons/lines/message-two.svg

<svg xmlns="http://www.w3.org/2000/svg" width="24" height="24" viewBox="0 0 24 24" fill="none" stroke="currentColor" stroke-width="2" stroke-linecap="round" stroke-linejoin="round" >
  <path d="M8.5 10.5H15.5" stroke-miterlimit="10"/>
  <path d="M7 18.43H11L15.45 21.39C16.11 21.83 17 21.36 17 20.56V18.43C20 18.43 22 16.43 22 13.43V7.42999C22 4.42999 20 2.42999 17 2.42999H7C4 2.42999 2 4.42999 2 7.42999V13.43C2 16.43 4 18.43 7 18.43Z" stroke-miterlimit="10"/>
  </svg>

<svg xmlns="http://www.w3.org/2000/svg" width="24" height="24" viewBox="0 0 24 24" fill="none" stroke="currentColor" stroke-width="2" stroke-linecap="round" stroke-linejoin="round">
  <path d="m11 18.43 4.45 2.96a1 1 0 0 0 1.55-.83v-2.13c3 0 5-2 5-5v-6c0-3-2-5-5-5H7c-3 0-5 2-5 5v6c0 3 2 5 5 5z" />
  <path d="M8.5 10.5h7" />
</svg>
